public/html.svg

<svg width="24" height="16" viewBox="0 0 24 16" fill="none" xmlns="http://www.w3.org/2000/svg">
<path d="M14.9616 1.27473C15.1133 0.743699 14.8058 0.190214 14.2748 0.0384894C13.7438 -0.113235 13.1903 0.194257 13.0386 0.725292L9.03856 14.7253C8.88684 15.2563 9.19433 15.8098 9.72537 15.9615C10.2564 16.1133 10.8099 15.8058 10.9616 15.2747L14.9616 1.27473Z" fill="#0F0F0F"/>
<path d="M5.79919 3.39879C6.13123 3.84012 6.04265 4.46705 5.60132 4.7991L2.40903 7.20093C1.87733 7.60098 1.87733 8.39905 2.40904 8.7991L5.60132 11.2009C6.04265 11.533 6.13123 12.1599 5.79919 12.6012C5.46714 13.0426 4.84021 13.1311 4.39889 12.7991L1.2066 10.3973C-0.388524 9.19712 -0.38853 6.80291 1.20659 5.60276L4.39889 3.20093C4.84021 2.86889 5.46714 2.95747 5.79919 3.39879Z" fill="#0F0F0F"/>
<path d="M18.201 12.6012C17.869 12.1599 17.9575 11.533 18.3989 11.2009L21.5912 8.7991C22.1229 8.39905 22.1229 7.60098 21.5912 7.20093L18.3989 4.7991C17.9575 4.46705 17.869 3.84012 18.201 3.39879C18.533 2.95747 19.16 2.86889 19.6013 3.20093L22.7936 5.60276C24.3887 6.80291 24.3887 9.19711 22.7936 10.3973L19.6013 12.7991C19.16 13.1311 18.533 13.0426 18.201 12.6012Z" fill="#0F0F0F"/>
</svg>

<svg width="24" height="16" fill="none" xmlns="http://www.w3.org/2000/svg"><path d="M14.962 1.275a1 1 0 0 0-1.923-.55l-4 14a1 1 0 1 0 1.923.55l4-14ZM5.8 3.399a1 1 0 0 1-.199 1.4L2.41 7.201a1 1 0 0 0 0 1.598l3.192 2.402A1 1 0 0 1 4.4 12.799l-3.192-2.402a3 3 0 0 1 0-4.794L4.399 3.2a1 1 0 0 1 1.4.198ZM18.201 12.601a1 1 0 0 1 .198-1.4l3.192-2.402a1 1 0 0 0 0-1.598L18.4 4.799A1 1 0 1 1 19.6 3.201l3.193 2.402a3 3 0 0 1 0 4.794L19.6 12.8a1 1 0 0 1-1.4-.198Z" fill="#0F0F0F"/></svg>
